X:1
T: The Flying Column
C:
R:Reel
Q: 232
K:D
M:4/4
L:1/8
|:D2 ((3FED) AD FD|Ad dc de fd|D2 ((3FED) AD FD|Bd AF ED EF|
D2 ((3FED) AD FD|Ad dc de fg|((3agf) ((3gfe) fd ed|((3Bcd) AF FD Dc|
de ((3dBA) FF FF|DF ((3FFF) AD FA|dc dB AD FA|((3Bcd) AF FE Ec|
((3ded) ((3cdc) ((3BcB) AB|AG FA Bc de|((3fga) ec dc BA|Bd AF ED D2:|
